X: 17
T: The Swallow's Tail
R: reel
M: 4/4
L: 1/8
K: Ador
gf|:eABA eABA | Bdef gdBA | G2BG dGBG | Bdef ggfg |
eABA eABA | Bdef gfgb |agec dBGB |A2A2 A3f :|
|:aaaa gbag | edef gdBA | G2BG dGBG | Bdef ggfg |
eaaa gbag | edef gfgb | agec dBGB |A2A2 A3f :|


Tune 105	Setting 12673

